assets/images/instagram.svg

<svg xmlns="http://www.w3.org/2000/svg" width="800" height="800" fill="none" viewBox="0 0 960 960"><path fill="#fff" d="M599.256 326.893c38.951-1.898 44.943 61.923 2.197 56.33-35.456-.999-39.95-55.331-2.197-56.33Z"/><path fill="#000" d="M726.895 478.902c3.096-228.415-88.39-257.978-297.029-245.294-143.72-11.086-200.15 97.778-200.549 226.517-7.79 126.043 31.061 285.343 187.965 271.96 195.855-3.495 318.702-23.371 309.613-253.183ZM384.423 85.793C608.743 64.92 868.418 97.08 871.514 377.828c7.89 129.238 12.085 267.765-51.236 385.019-67.416 114.656-179.775 109.862-296.629 112.559-102.772 4.095-208.739 12.984-307.815-20.674C114.86 819.776 87.394 743.571 89.591 643.895c-3.495-85.792-6.99-171.385-5.493-257.278 4.994-203.546 93.883-305.518 300.325-300.824Z"/><path fill="#fff" d="M429.866 233.608c208.639-12.684 300.024 16.879 297.028 245.294 9.089 229.812-113.758 249.588-309.513 253.183-157.004 13.384-195.755-146.017-187.965-271.96.3-128.739 56.729-237.603 200.45-226.517Zm253.083 252.485c0-141.423-17.378-216.33-177.977-209.139-47.741 4.694-103.571-2.397-151.511 13.883-96.28 47.041-82.996 176.379-74.107 266.067 8.689 144.919 128.839 140.624 241.298 124.445 138.127-7.291 163.596-66.917 162.297-195.256Z"/><path fill="#fff" d="M495.188 393.309c-101.673-5.193-133.033 162.297-21.473 166.792 104.869-2.497 120.949-136.929 21.473-166.792Zm-21.273-38.452c175.58-11.885 164.794 247.591-.799 245.793-156.904-4.794-142.222-231.81.799-245.793Z"/><path fill="#000" d="M473.813 560.102c-111.561-4.594-80.3-172.085 21.473-166.792 99.376 29.863 83.296 164.295-21.473 166.792Z"/><path fill="#000" d="M504.973 276.955c160.599-7.291 178.077 67.715 177.977 209.138 1.199 128.34-24.169 187.965-162.297 195.256-112.459 16.18-232.609 20.474-241.298-124.444-8.889-89.788-22.073-219.027 74.107-266.068 47.94-16.279 103.771-9.188 151.511-13.882Zm-31.76 323.695c165.493 1.798 176.379-257.678.799-245.793-143.122 13.983-157.803 240.999-.799 245.793Zm128.239-217.428c42.747 5.593 36.754-58.128-2.197-56.33-37.753.999-33.258 55.331 2.197 56.33Z"/></svg>

<?xml version="1.0" encoding="utf-8"?><!-- Uploaded to: SVG Repo, www.svgrepo.com, Generator: SVG Repo Mixer Tools -->
<svg width="800px" height="800px" viewBox="0 0 960 960" fill="none" xmlns="http://www.w3.org/2000/svg">
<path d="M599.256 326.893C638.207 324.995 644.199 388.816 601.453 383.223C565.997 382.224 561.503 327.892 599.256 326.893Z" fill="white"/>
<path d="M726.895 478.902C729.991 250.487 638.505 220.924 429.866 233.608C286.146 222.522 229.716 331.386 229.317 460.125C221.527 586.168 260.378 745.468 417.282 732.085C613.137 728.59 735.984 708.714 726.895 478.902ZM384.423 85.7931C608.743 64.9192 868.418 97.079 871.514 377.828C879.404 507.066 883.599 645.593 820.278 762.847C752.862 877.503 640.503 872.709 523.649 875.406C420.877 879.501 314.91 888.39 215.834 854.732C114.86 819.776 87.3942 743.571 89.5915 643.895C86.0959 558.103 82.6002 472.51 84.0984 386.617C89.0921 183.071 177.981 81.099 384.423 85.7931Z" fill="#000000"/>
<path d="M429.866 233.608C638.505 220.924 729.89 250.487 726.894 478.902C735.983 708.714 613.136 728.49 417.381 732.085C260.377 745.469 221.626 586.068 229.416 460.125C229.716 331.386 286.145 222.522 429.866 233.608ZM682.949 486.093C682.949 344.67 665.571 269.763 504.972 276.954C457.231 281.648 401.401 274.557 353.461 290.837C257.181 337.878 270.465 467.216 279.354 556.904C288.043 701.823 408.193 697.528 520.652 681.349C658.779 674.058 684.248 614.432 682.949 486.093Z" fill="white"/>
<path d="M495.188 393.309C393.515 388.116 362.155 555.606 473.715 560.101C578.584 557.604 594.664 423.172 495.188 393.309ZM473.915 354.857C649.495 342.972 638.709 602.448 473.116 600.65C316.212 595.856 330.894 368.84 473.915 354.857Z" fill="white"/>
<path d="M473.813 560.102C362.252 555.508 393.513 388.017 495.286 393.31C594.662 423.173 578.582 557.605 473.813 560.102Z" fill="#000000"/>
<path d="M504.973 276.955C665.572 269.664 683.05 344.67 682.95 486.093C684.149 614.433 658.781 674.058 520.653 681.349C408.194 697.529 288.044 701.823 279.355 556.905C270.466 467.117 257.282 337.878 353.462 290.837C401.402 274.558 457.233 281.649 504.973 276.955ZM473.213 600.65C638.706 602.448 649.592 342.972 474.012 354.857C330.89 368.84 316.209 595.856 473.213 600.65ZM601.452 383.222C644.199 388.815 638.206 325.094 599.255 326.892C561.502 327.891 565.997 382.223 601.452 383.222Z" fill="#000000"/>
</svg>
